dist/svgs/crypto-icons/icons/time.svg

<?xml version="1.0" encoding="UTF-8" standalone="yes"?>
<svg xmlns="http://www.w3.org/2000/svg" xmlns:xlink="http://www.w3.org/1999/xlink" width="510.66666666666663px" height="349.3333333333333px" viewBox="0 0 383 262" version="1.1">
  <g id="surface1">
    <path style=" stroke:none;fill-rule:evenodd;fill:rgb(0%,0%,0%);fill-opacity:1;" d="M 357.011719 262 L 26.785156 262 C 19.589844 262 13.328125 259.328125 7.996094 253.988281 C 2.664062 248.644531 0 242.371094 0 235.160156 L 0 26.839844 C 0 19.363281 2.664062 13.019531 7.996094 7.8125 C 13.328125 2.605469 19.589844 0 26.785156 0 L 355.8125 0 C 363.011719 0 369.273438 2.605469 374.605469 7.8125 C 379.933594 13.019531 382.601562 19.363281 382.601562 26.839844 L 382.601562 234.359375 C 383.132812 242.101562 380.800781 248.644531 375.605469 253.988281 C 370.40625 259.328125 364.210938 262 357.011719 262 Z M 17.191406 234.359375 C 17.191406 237.027344 18.191406 239.296875 20.191406 241.167969 C 22.1875 243.039062 24.386719 243.972656 26.785156 243.972656 L 53.171875 243.972656 C 50.242188 235.691406 45.710938 228.347656 39.578125 221.9375 C 33.449219 215.527344 25.988281 210.988281 17.191406 208.316406 Z M 26.785156 17.226562 C 24.386719 17.226562 22.1875 18.160156 20.191406 20.03125 C 18.191406 21.898438 17.191406 24.171875 17.191406 26.839844 L 17.191406 52.878906 C 25.453125 50.210938 32.78125 45.738281 39.179688 39.460938 C 45.578125 33.183594 50.242188 25.773438 53.171875 17.226562 Z M 366.609375 26.839844 C 366.609375 24.171875 365.609375 21.898438 363.609375 20.03125 C 361.609375 18.160156 359.414062 17.226562 357.011719 17.226562 L 330.628906 17.226562 C 333.558594 25.503906 338.089844 32.851562 344.21875 39.261719 C 350.351562 45.667969 357.8125 50.210938 366.609375 52.878906 Z M 366.609375 70.910156 C 353.546875 67.703125 342.089844 61.226562 332.226562 51.480469 C 322.363281 41.730469 315.835938 30.3125 312.636719 17.226562 L 71.5625 17.226562 C 68.363281 30.3125 61.902344 41.730469 52.171875 51.480469 C 42.445312 61.226562 31.050781 67.703125 17.992188 70.910156 L 17.992188 190.289062 C 31.050781 193.496094 42.445312 199.972656 52.171875 209.71875 C 61.902344 219.46875 68.363281 230.886719 71.5625 243.972656 L 312.636719 243.972656 C 315.835938 230.886719 322.363281 219.46875 332.226562 209.71875 C 342.089844 199.972656 353.546875 193.496094 366.609375 190.289062 Z M 366.609375 208.71875 C 358.347656 211.65625 351.015625 216.195312 344.621094 222.339844 C 338.222656 228.480469 333.558594 235.960938 330.628906 244.773438 L 357.011719 244.773438 C 359.414062 244.773438 361.609375 243.773438 363.609375 241.769531 C 365.609375 239.765625 366.609375 237.5625 366.609375 235.160156 Z M 191.898438 217.132812 C 179.90625 217.132812 168.710938 214.859375 158.316406 210.320312 C 147.65625 205.78125 138.460938 199.636719 130.730469 191.894531 C 123.003906 184.148438 116.871094 174.933594 112.339844 164.25 C 107.808594 153.835938 105.542969 142.617188 105.542969 130.597656 C 105.542969 118.582031 107.808594 107.363281 112.339844 96.949219 C 116.871094 86.265625 123.003906 77.050781 130.730469 69.304688 C 138.460938 61.5625 147.65625 55.417969 158.316406 50.878906 C 168.710938 46.335938 179.90625 44.066406 191.898438 44.066406 C 203.894531 44.066406 215.085938 46.335938 225.480469 50.878906 C 236.144531 55.417969 245.339844 61.5625 253.066406 69.304688 C 260.796875 77.050781 266.925781 86.265625 271.457031 96.949219 C 275.988281 107.363281 278.253906 118.582031 278.253906 130.597656 C 278.253906 142.617188 275.988281 153.835938 271.457031 164.25 C 266.925781 174.933594 260.796875 184.148438 253.066406 191.894531 C 245.339844 199.636719 236.144531 205.78125 225.480469 210.320312 C 215.085938 214.859375 203.894531 217.132812 191.898438 217.132812 Z M 191.898438 60.089844 C 172.441406 60.089844 155.851562 66.96875 142.125 80.722656 C 128.398438 94.476562 121.535156 111.101562 121.535156 130.597656 C 121.535156 150.097656 128.398438 166.722656 142.125 180.476562 C 155.851562 194.230469 172.441406 201.105469 191.898438 201.105469 C 211.355469 201.105469 227.949219 194.230469 241.671875 180.476562 C 255.398438 166.722656 262.261719 150.097656 262.261719 130.597656 C 262.261719 111.101562 255.398438 94.476562 241.671875 80.722656 C 227.949219 66.96875 211.355469 60.089844 191.898438 60.089844 Z M 231.078125 135.808594 L 198.296875 135.808594 L 198.296875 169.859375 C 198.296875 171.996094 197.496094 173.867188 195.898438 175.46875 C 194.296875 177.070312 192.300781 177.871094 189.902344 177.871094 C 187.769531 177.871094 185.835938 177.070312 184.105469 175.46875 C 182.371094 173.867188 181.503906 171.996094 181.503906 169.859375 L 181.503906 128.195312 C 181.503906 125.792969 182.371094 123.789062 184.105469 122.1875 C 185.835938 120.585938 187.769531 119.78125 189.902344 119.78125 L 230.28125 119.78125 C 232.410156 119.78125 234.34375 120.585938 236.078125 122.1875 C 237.808594 123.789062 238.675781 125.792969 238.675781 128.195312 C 238.941406 130.332031 238.277344 132.136719 236.675781 133.605469 C 235.078125 135.074219 233.210938 135.808594 231.078125 135.808594 Z M 231.078125 135.808594 "/>
  </g>
</svg>

<svg xmlns="http://www.w3.org/2000/svg" viewBox="0 0 383 262"><path fill-rule="evenodd" d="M357.012 262H26.785c-7.195 0-13.457-2.672-18.789-8.012C2.664 248.645 0 242.371 0 235.16V26.84c0-7.477 2.664-13.82 7.996-19.027C13.328 2.604 19.59 0 26.786 0h329.026c7.2 0 13.461 2.605 18.793 7.813 5.329 5.207 7.997 11.55 7.997 19.027v207.52c.53 7.742-1.801 14.285-6.997 19.628-5.199 5.34-11.394 8.012-18.593 8.012zm-339.82-27.64c0 2.667 1 4.937 3 6.808 1.995 1.871 4.195 2.805 6.593 2.805h26.387c-2.93-8.282-7.461-15.625-13.594-22.036-6.129-6.41-13.59-10.949-22.387-13.62zm9.593-217.133c-2.398 0-4.598.933-6.594 2.804-2 1.867-3 4.14-3 6.809v26.039c8.262-2.668 15.59-7.14 21.989-13.418 6.398-6.277 11.062-13.688 13.992-22.234zM366.61 26.84c0-2.668-1-4.942-3-6.809-2-1.87-4.195-2.804-6.597-2.804H330.63c2.93 8.277 7.46 15.625 13.59 22.035 6.133 6.406 13.594 10.949 22.39 13.617zm0 44.07c-13.062-3.207-24.52-9.683-34.382-19.43-9.864-9.75-16.391-21.167-19.59-34.253H71.562c-3.199 13.085-9.66 24.503-19.39 34.253-9.727 9.747-21.121 16.223-34.18 19.43v119.38c13.059 3.206 24.453 9.683 34.18 19.429 9.73 9.75 16.191 21.168 19.39 34.254h241.075c3.199-13.086 9.726-24.504 19.59-34.254 9.863-9.746 21.32-16.223 34.382-19.43zm0 137.809c-8.261 2.937-15.593 7.476-21.988 13.62-6.398 6.141-11.062 13.622-13.992 22.434h26.383c2.402 0 4.597-1 6.597-3.003 2-2.004 3-4.208 3-6.61zm-174.71 8.414c-11.993 0-23.188-2.274-33.583-6.813-10.66-4.539-19.855-10.683-27.586-18.425-7.726-7.747-13.859-16.961-18.39-27.645-4.531-10.414-6.797-21.633-6.797-33.652 0-12.016 2.266-23.235 6.797-33.649 4.531-10.683 10.664-19.898 18.39-27.644 7.73-7.743 16.926-13.887 27.586-18.426 10.395-4.543 21.59-6.813 33.582-6.813 11.997 0 23.188 2.27 33.582 6.813 10.665 4.539 19.86 10.684 27.586 18.426 7.73 7.746 13.86 16.96 18.391 27.644 4.531 10.414 6.797 21.633 6.797 33.649 0 12.02-2.266 23.238-6.797 33.652-4.531 10.684-10.66 19.898-18.39 27.645-7.727 7.742-16.922 13.886-27.587 18.425-10.394 4.54-21.585 6.813-33.582 6.813zm0-157.043c-19.458 0-36.047 6.879-49.774 20.633-13.727 13.754-20.59 30.379-20.59 49.875 0 19.5 6.863 36.125 20.59 49.879 13.727 13.753 30.316 20.628 49.773 20.628 19.457 0 36.051-6.875 49.774-20.628 13.726-13.754 20.59-30.38 20.59-49.88 0-19.495-6.864-36.12-20.59-49.874-13.723-13.754-30.317-20.633-49.774-20.633zm39.18 75.719h-32.782v34.05c0 2.137-.8 4.008-2.399 5.61-1.601 1.601-3.597 2.402-5.996 2.402-2.132 0-4.066-.8-5.797-2.402-1.734-1.602-2.601-3.473-2.601-5.61v-41.664c0-2.402.867-4.406 2.601-6.007 1.73-1.602 3.665-2.407 5.797-2.407h40.38c2.128 0 4.062.805 5.796 2.406 1.73 1.602 2.598 3.606 2.598 6.008.265 2.137-.399 3.942-2 5.41-1.598 1.47-3.465 2.204-5.598 2.204zm0 0"/></svg>
